X:445
T: Ihr Geschpfe, kommt heran (5-41), S. 68
N: P0715
O: Lothringen
S: MERKELBACH-PINCK, Angelika: Verklingende Weisen, Bd 5, Kassel 1962]
R: geistliches, religises Lied]
M: 4/4
L: 1/8
K: Bb
 | B2G2F2F2 | G3EE2D2 |
B2G2F2F2 | G3EE2D2 |
A3Bc2c2 | B2c2d4 |
e2c2B2B2 | A2c2B4 |
e2c2B2B2 | A2c2B4

